public/logos/chakraui.svg

<svg fill="none" height="582" viewBox="0 0 582 582" width="582" xmlns="http://www.w3.org/2000/svg" xmlns:xlink="http://www.w3.org/1999/xlink"><linearGradient id="a" gradientUnits="userSpaceOnUse" x1="291" x2="291" y1="0" y2="582"><stop offset="0" stop-color="#7bcbd4"/><stop offset="1" stop-color="#29c6b7"/></linearGradient><rect fill="url(#a)" height="582" rx="291" width="582"/><path d="m157.521 303.421 198.36-196.995c3.706-3.68 9.669.799 7.168 5.383l-73.829 135.314c-1.647 3.018.538 6.698 3.976 6.698h127.586c4.11 0 6.095 5.036 3.09 7.84l-223.579 208.665c-4.009 3.741-9.976-1.53-6.757-5.97l105.837-146.005c2.17-2.994.031-7.187-3.667-7.187h-134.993c-4.043 0-6.06-4.894-3.192-7.743z" fill="#fff"/></svg>

<svg width="582" height="582" viewBox="0 0 582 582" fill="none" xmlns="http://www.w3.org/2000/svg">
<rect width="582" height="582" rx="291" fill="url(#paint0_linear)"/>
<path d="M157.521 303.421L355.881 106.426C359.587 102.746 365.55 107.225 363.049 111.809L289.22 247.123C287.573 250.141 289.758 253.821 293.196 253.821H420.782C424.892 253.821 426.877 258.857 423.872 261.661L200.293 470.326C196.284 474.067 190.317 468.796 193.536 464.356L299.373 318.351C301.543 315.357 299.404 311.164 295.706 311.164H160.713C156.67 311.164 154.653 306.27 157.521 303.421Z" fill="white"/>
<defs>
<linearGradient id="paint0_linear" x1="291" y1="0" x2="291" y2="582" gradientUnits="userSpaceOnUse">
<stop stop-color="#7BCBD4"/>
<stop offset="1" stop-color="#29C6B7"/>
</linearGradient>
</defs>
</svg>
